X:15
T:Polska efter Niklas Larsson (EÖ15)
S:efter Niklas Larsson
B:EÖ, nr 15
O:Svarteborg, Bohuslän
R:Polska
Z:Nils L
M:3/4
L:1/8
K:D
(A>B c)d Pe>d | (3efg a2 f>d | f>a (3geg (3fdf | (3fag (3gef de/2f/2 | g2 B>c d>c |
(3efe (3ded cB | (A>B c)d {ef}e>d | (3efg a2 f>d | f>a (3geg (3fdf |
(3fag (3gef de/2f/2 | g2 B>c d>c | (3efe d4 || d>A F>A F>G |
A>d (3BAG ((3FDF) | A>d B>G F>G | A>d (3cBc d2 | ((3cAB) G>A F>G |
A>d (3cBc d>c | (3def (3geg (3fdf | (3ece [dD]4 :|

